X:1
T:Mrs. C. H. Morris
T:Mrs .C. H. M.
T:Jesus Needs You To-day
%%score { ( 1 2 ) | ( 3 4 ) }
L:1/8
M:6/8
K:C
V:1 treble 
V:2 treble 
V:3 bass 
V:4 bass 
V:1
{/x} cBA G2 A | E3 E3 | EEE D2 C | E3- E3 | FFF E2 D | G3 E3 | cGE D2 E | D3- D3 | FFF E2 D | %9
w: Je\- sus, the ten\- der|Shep\- herd,|Needs you the lost to|seek, *|Needs you to lift the|fall\- en,|Strength\- en and help the|weak. *|Some of His lambs are|
w: Needs you to feed the|hun\- gry,|From His a\- bun\- dant|store; *|Bind up the bro\- ken\-|heart\- ed;|Vis\- it the sick and|poor: *|Needs you to scat\- ter|
w: Needs you to tell the|sto\- ry,|Old, and yet al\- ways|new; *|Some one will fail to|hear it,|Un\- less 'tis told by|you; *|Read\- y for an\- y|
 A3 G3 | AAA A^GA | B3- B2 G | ccc cBA | (GG)c e3 | cAc c2 B | c3- c3 |"^Chorus" G3- G^FG | %17
w: wand\- 'ring|Out on the hills * a\-|stray; * To|gath\- er them in from the|fields * of sin,|Je\- sus needs you to\-|day. *|Je\- * sus needs|
w: sun\- shine,|All a\- long life's * rough|way; * Some|hearts to make glad, that are|lone\- ly and sad,|Je\- sus needs you to\-|day. *||
w: ser\- vice,|Close by His side * to|stay; * The|sic\- kle to wield in life's|har\- * vest\- field,|Je\- sus needs you to\-|day. *||
 A2 A A3 | B3- Bcd | c3- c3 | c2 c cBA | G2 e dcA | d3- dcA | d3- d3 | G3- Gec | (c3 B3) | %26
w: you to\- day,|Je\- * sus needs|you; *|Not some oth\- er, but|you, my broth\- er, A\-|rise, * and a\-|way! *|Je\- * sus needs|you, *|
w: |||||||||
w: |||||||||
 c3 c2 d | e3- e3 | d2 c cBA | G2 e dcB | dAc c2 B | c3- c3 |] %32
w: Je\- * sus|needs you;|Not some oth\- er, but|you, my broth\- er, Yes,|Je\- sus needs you to\-|day. *|
w: ||||||
w: ||||||
V:2
 EEE E2 E | C3 C3 | CCC C2 C | C3- C3 | B,B,B, C2 B, | C3 C3 | cGE C2 C | B,3- B,3 | B,B,B, C2 B, | %9
 (C2 ^D) E3 | FFF ^D2 D | D3- D2 D | GGG AGF | (EE)E G3 | ^FFF =F2 F | E3- E3 | EEE E^DE | %17
 F2 G F3 | FFF F2 F | E2 E E3 | A2 A AGF | E2 G FEE | ^F3- FFF | (G3 F3) | E3- EGE | F3- F3 | %26
 G3 A2 A | ^G3- G3 | F2 A AGF | E2 G FEE | ^FFF =F2 F | E3- E3 |] %32
V:3
 G,G,G, G,2 G, | G,3 G,3 | G,G,G, F,2 E, | G,3- G,3 | G,G,G, G,2 G, | G,3 G,3 | CG,E, ^F,2 F, | %7
w: |||||||
 G,3- G,3 | G,G,G, G,2 F, | (E,2 ^F,) (G,2 C) | CCC C2 C | B,3- B,2 B, | CCC CCC | C-CC C3 | %14
w: |||||||
 CCA, G,2 G, | G,3- G,3 | CCC C2 C | C2 ^C D3 | DDD G,A,B, | C2 G, C3 | C2 C CCC | C2 G, G,G,C | %22
w: ||Je- sus needs you, needs|you to- day,|Je- sus needs you, * needs|you to- day;|||
 C3- CA,C | B,3- B,3 | C3 G,2 G, | G,2 G, D3 | C3 C2 A, | B,3- B,3 | A,2 C CCC | C2 G, G,G,C | %30
w: ||Je- sus needs|you, needs you,|||||
 CCA, G,2 G, | G,3- G,3 |] %32
w: ||
V:4
 C,C,C, C,2 C, | C,3 C,3 | C,C,C, C,2 C, | C,3- C,3 | D,D,D, G,2 F, | E,3 C,3 | CG,E, D,2 D, | %7
 G,,3- G,,3 | G,,G,,G,, G,,2 G,, | C,3 C,3 | F,F,F, ^F,2 F, | G,3- G,2 F, | E,E,E, F,F,F, | %13
 C,-C,C, C,3 | D,D,D, G,,2 G,, | C,3- C,3 | C,C,C, C,2 C, | F,2 E, D,3 | G,G,G, G,A,G, | %19
 C,2 C, C,3 | F,2 F, F,F,F, | C,2 C, C,C,C, | D,3- D,D,D, | G,3- G,3 | C,3 C,2 C, | D,2 D, G,3 | %26
 E,3 F,2 F, | E,3- E,3 | F,2 F, F,F,F, | C,2 C, C,C,C, | D,D,D, G,,2 G,, | C,3- C,3 |] %32

